public/logo.svg

<svg xmlns="http://www.w3.org/2000/svg" xmlns:xlink="http://www.w3.org/1999/xlink" width="542.315" height="513.097" viewBox="0 0 542.315 513.097">
  <defs>
    <linearGradient id="linear-gradient" x1="0.5" x2="0.5" y2="1" gradientUnits="objectBoundingBox">
      <stop offset="0" stop-color="#1d4b5d"/>
      <stop offset="1" stop-color="#684a71"/>
    </linearGradient>
  </defs>
  <g id="logo" transform="matrix(0.966, -0.259, 0.259, 0.966, -1078.856, -891.867)">
    <g id="Subtraction_2" data-name="Subtraction 2" transform="translate(3287.907 207.584)" fill="url(#linear-gradient)">
      <path d="M -2075.32421875 1455.214599609375 C -2078.115234375 1455.21484375 -2080.892822265625 1454.570922851562 -2083.580322265625 1453.300659179688 L -2209.83544921875 1393.6318359375 L -2199.689208984375 1375.629760742188 C -2198.053955078125 1372.72802734375 -2196.09765625 1369.998779296875 -2193.874267578125 1367.517822265625 C -2191.65185546875 1365.037475585938 -2189.152587890625 1362.794311523438 -2186.446533203125 1360.850830078125 L -2124.28515625 1316.214233398438 L -2059.10693359375 1426.452026367188 C -2057.251708984375 1429.58935546875 -2056.328369140625 1432.915161132812 -2056.362548828125 1436.337036132812 C -2056.393798828125 1439.461547851562 -2057.25341796875 1442.591430664062 -2058.8486328125 1445.38818359375 C -2060.50244140625 1448.287719726562 -2062.87646484375 1450.737060546875 -2065.713623046875 1452.471557617188 C -2068.64892578125 1454.265747070312 -2071.97216796875 1455.21435546875 -2075.32421875 1455.214599609375 Z M -2343.736083984375 1356.730224609375 L -2488.42333984375 1344.822998046875 C -2492.8212890625 1344.461059570312 -2496.7568359375 1342.769165039062 -2499.804931640625 1339.93017578125 C -2502.628173828125 1337.300415039062 -2504.57177734375 1333.849853515625 -2505.42529296875 1329.951538085938 C -2506.279052734375 1326.05322265625 -2505.955322265625 1322.106079101562 -2504.4892578125 1318.536743164062 C -2502.906494140625 1314.683715820312 -2500.037841796875 1311.501953125 -2496.193603515625 1309.335327148438 L -2380.969970703125 1244.393310546875 L -2350.6494140625 1308.54931640625 C -2348.27978515625 1313.563842773438 -2346.84814453125 1318.907470703125 -2346.39404296875 1324.431762695312 L -2343.736083984375 1356.730224609375 Z M -2163.9814453125 1203.63720703125 L -2230.341552734375 1197.035400390625 C -2233.656005859375 1196.705810546875 -2236.94140625 1196.013061523438 -2240.10693359375 1194.97607421875 C -2243.27197265625 1193.939453125 -2246.331298828125 1192.553955078125 -2249.199462890625 1190.858032226562 L -2291.734619140625 1165.708618164062 L -2212.19873046875 1054.945922851562 C -2210.310791015625 1052.316650390625 -2207.958251953125 1050.290771484375 -2205.205810546875 1048.924682617188 C -2202.675537109375 1047.66845703125 -2199.811767578125 1047.004516601562 -2196.924072265625 1047.004516601562 C -2192.316650390625 1047.004516601562 -2187.860595703125 1048.619140625 -2184.376708984375 1051.551025390625 C -2182.577392578125 1053.0654296875 -2181.108642578125 1054.875 -2180.010986328125 1056.929443359375 C -2178.84130859375 1059.118286132812 -2178.116943359375 1061.54638671875 -2177.8583984375 1064.146484375 L -2163.9814453125 1203.63720703125 Z" stroke="none"/>
      <path d="M -2075.324462890625 1454.214599609375 C -2072.15625 1454.21435546875 -2069.013427734375 1453.316650390625 -2066.2353515625 1451.618286132812 C -2063.54150390625 1449.9716796875 -2061.28759765625 1447.64599609375 -2059.71728515625 1444.892822265625 C -2058.206298828125 1442.24365234375 -2057.39208984375 1439.281616210938 -2057.3623046875 1436.327026367188 C -2057.330322265625 1433.090209960938 -2058.206787109375 1429.939086914062 -2059.9677734375 1426.961059570312 L -2124.58984375 1317.663940429688 L -2185.863037109375 1361.6630859375 C -2188.510498046875 1363.564453125 -2190.955322265625 1365.7587890625 -2193.129638671875 1368.185180664062 C -2195.3046875 1370.6123046875 -2197.21826171875 1373.2822265625 -2198.81787109375 1376.120849609375 L -2208.436767578125 1393.186767578125 L -2083.15283203125 1452.396606445312 C -2080.60009765625 1453.603149414062 -2077.966064453125 1454.21484375 -2075.324462890625 1454.214599609375 L -2075.324462890625 1454.214599609375 M -2344.829345703125 1355.636962890625 L -2347.390869140625 1324.513671875 C -2347.8349609375 1319.109619140625 -2349.2353515625 1313.882202148438 -2351.553466796875 1308.976684570312 L -2381.4150390625 1245.7919921875 L -2495.70263671875 1310.206420898438 C -2499.34912109375 1312.26171875 -2502.067626953125 1315.273681640625 -2503.564208984375 1318.916748046875 C -2504.95263671875 1322.297119140625 -2505.258544921875 1326.038818359375 -2504.448486328125 1329.737670898438 C -2503.638671875 1333.436401367188 -2501.797119140625 1336.7080078125 -2499.12353515625 1339.198486328125 C -2496.241455078125 1341.8828125 -2492.512939453125 1343.483032226562 -2488.34130859375 1343.826293945312 L -2344.829345703125 1355.636962890625 M -2165.097412109375 1202.521240234375 L -2178.853515625 1064.245483398438 C -2179.09912109375 1061.7763671875 -2179.785400390625 1059.473388671875 -2180.892822265625 1057.400634765625 C -2181.930419921875 1055.458984375 -2183.319091796875 1053.748291015625 -2185.020751953125 1052.316162109375 C -2188.324462890625 1049.535766601562 -2192.5517578125 1048.004516601562 -2196.924072265625 1048.004516601562 C -2199.657958984375 1048.004516601562 -2202.3681640625 1048.63232421875 -2204.76123046875 1049.820434570312 C -2207.36572265625 1051.113159179688 -2209.5947265625 1053.033813476562 -2211.386474609375 1055.529174804688 L -2290.284912109375 1165.404052734375 L -2248.690673828125 1189.997314453125 C -2245.884765625 1191.65625 -2242.89208984375 1193.011596679688 -2239.795654296875 1194.025756835938 C -2236.698974609375 1195.040161132812 -2233.48486328125 1195.717895507812 -2230.242431640625 1196.040283203125 L -2165.097412109375 1202.521240234375 M -2075.32421875 1456.214599609375 C -2078.263916015625 1456.21484375 -2081.185302734375 1455.538696289062 -2084.007568359375 1454.204711914062 L -2211.234130859375 1394.076782226562 L -2200.560302734375 1375.138793945312 C -2198.889404296875 1372.173706054688 -2196.890380859375 1369.385131835938 -2194.619140625 1366.850463867188 C -2192.34814453125 1364.316162109375 -2189.794677734375 1362.024291992188 -2187.02978515625 1360.03857421875 L -2123.980712890625 1314.764404296875 L -2058.24609375 1425.943115234375 C -2056.296875 1429.239624023438 -2055.32666015625 1432.740112304688 -2055.362548828125 1436.346923828125 C -2055.3955078125 1439.641357421875 -2056.300537109375 1442.939086914062 -2057.97998046875 1445.883666992188 C -2059.71728515625 1448.929443359375 -2062.211181640625 1451.50244140625 -2065.192138671875 1453.32470703125 C -2068.284423828125 1455.215087890625 -2071.787841796875 1456.21435546875 -2075.32421875 1456.214599609375 Z M -2342.642578125 1357.823608398438 L -2488.50537109375 1345.819580078125 C -2493.129638671875 1345.439086914062 -2497.2724609375 1343.655639648438 -2500.486572265625 1340.661987304688 C -2503.459228515625 1337.89306640625 -2505.5048828125 1334.263427734375 -2506.402099609375 1330.165405273438 C -2507.299560546875 1326.067626953125 -2506.9580078125 1321.915161132812 -2505.414306640625 1318.156860351562 C -2503.7451171875 1314.093627929688 -2500.726318359375 1310.742065429688 -2496.6845703125 1308.464111328125 L -2380.52490234375 1242.99462890625 L -2349.745361328125 1308.1220703125 C -2347.32421875 1313.245483398438 -2345.861328125 1318.705200195312 -2345.3974609375 1324.349853515625 L -2342.642578125 1357.823608398438 Z M -2162.865234375 1204.75439453125 L -2162.865478515625 1204.753173828125 L -2162.865234375 1204.75439453125 Z M -2162.865478515625 1204.753173828125 L -2230.4404296875 1198.030517578125 C -2233.827392578125 1197.693725585938 -2237.184326171875 1196.985717773438 -2240.418212890625 1195.926391601562 C -2243.65283203125 1194.866943359375 -2246.7783203125 1193.451293945312 -2249.70849609375 1191.718872070312 L -2293.184326171875 1166.013061523438 L -2213.010986328125 1054.362670898438 C -2211.02685546875 1051.599243164062 -2208.55029296875 1049.46826171875 -2205.650390625 1048.028930664062 C -2202.982421875 1046.704467773438 -2199.96484375 1046.004516601562 -2196.924072265625 1046.004516601562 C -2192.081298828125 1046.004516601562 -2187.396728515625 1047.702514648438 -2183.73291015625 1050.785888671875 C -2181.8359375 1052.382568359375 -2180.286865234375 1054.290893554688 -2179.12890625 1056.458129882812 C -2177.897216796875 1058.763061523438 -2177.135009765625 1061.31640625 -2176.86328125 1064.047485351562 L -2162.865478515625 1204.753173828125 Z" stroke="none" fill="#000"/>
    </g>
    <text id="T" transform="translate(860.991 1541.922)" fill="#fff" font-size="66" font-family="FinalSix-Heavy, FinalSix" font-weight="800"><tspan x="0" y="0">T</tspan></text>
    <text id="M" transform="translate(1042.57 1368.282)" fill="#fff" font-size="67" font-family="FinalSix-Heavy, FinalSix" font-weight="800"><tspan x="0" y="0">M</tspan></text>
    <text id="S" transform="translate(1129.312 1611.159)" fill="#fff" font-size="67" font-family="FinalSix-Heavy, FinalSix" font-weight="800"><tspan x="0" y="0">S</tspan></text>
  </g>
</svg>

<svg xmlns="http://www.w3.org/2000/svg" xmlns:xlink="http://www.w3.org/1999/xlink" width="542.314" height="513.097" viewBox="0 0 542.314 513.097">
  <defs>
    <linearGradient id="linear-gradient" x1="0.5" x2="0.5" y2="1" gradientUnits="objectBoundingBox">
      <stop offset="0" stop-color="#1d4b5d"/>
      <stop offset="1" stop-color="#684a71"/>
    </linearGradient>
  </defs>
  <g id="logo" transform="matrix(0.966, -0.259, 0.259, 0.966, -1078.856, -891.867)">
    <path id="Subtraction_2" data-name="Subtraction 2" d="M-2075.324,1456.215a20.209,20.209,0,0,1-8.683-2.01l-127.227-60.128,10.674-18.938a47.065,47.065,0,0,1,5.941-8.288,47.1,47.1,0,0,1,7.589-6.812l63.049-45.274,65.735,111.179a19.835,19.835,0,0,1,2.884,10.4,19.715,19.715,0,0,1-2.617,9.537,20.845,20.845,0,0,1-7.212,7.441A19.442,19.442,0,0,1-2075.324,1456.215Zm-267.318-98.391-145.863-12a19.726,19.726,0,0,1-11.981-5.158,20.126,20.126,0,0,1-5.916-10.5,20.126,20.126,0,0,1,.988-12.009,19.727,19.727,0,0,1,8.73-9.693l116.16-65.469,30.78,65.127a46.829,46.829,0,0,1,4.348,16.228l2.755,33.473Zm179.777-153.069h0l-67.575-6.723a47.069,47.069,0,0,1-9.978-2.1,47.078,47.078,0,0,1-9.29-4.208l-43.476-25.706,80.173-111.65a19.93,19.93,0,0,1,7.361-6.334,19.719,19.719,0,0,1,8.726-2.024,20.5,20.5,0,0,1,13.191,4.781,19.236,19.236,0,0,1,4.6,5.672,20.265,20.265,0,0,1,2.266,7.589l14,140.706Z" transform="translate(3287.907 207.584)" fill="url(#linear-gradient)"/>
    <text id="T" transform="translate(860.991 1541.922)" fill="#fff" font-size="66" font-family="FinalSix-Heavy, FinalSix" font-weight="800"><tspan x="0" y="0">T</tspan></text>
    <text id="M" transform="translate(1042.57 1368.282)" fill="#fff" font-size="67" font-family="FinalSix-Heavy, FinalSix" font-weight="800"><tspan x="0" y="0">M</tspan></text>
    <text id="S" transform="translate(1129.312 1611.159)" fill="#fff" font-size="67" font-family="FinalSix-Heavy, FinalSix" font-weight="800"><tspan x="0" y="0">S</tspan></text>
  </g>
</svg>
